src/assets/images/types/fire.svg

<svg width="512" height="512" fill="none" xmlns="http://www.w3.org/2000/svg"><path fill-rule="evenodd" clip-rule="evenodd" d="M352.258 395.394c6.326-23.131-5.953-70.684-5.953-70.684s-8.906 38.739-22.822 53.057c-11.872 12.213-26.417 20.684-47.277 22.91 17.055-8.284 28.784-25.557 28.784-45.522 0-28.026-23.112-50.746-51.622-50.746s-51.623 22.72-51.623 50.746a49.84 49.84 0 0 0 4.812 21.421c-17.832-14.206-20.636-36.982-20.636-36.982s-19.912 82.67 34.954 121.558c54.865 38.888 162.344 5.462 162.344 5.462S229.41 574.837 115.436 457.05c-98.18-101.466-25.625-235.047-25.625-235.047s-3.133 12.392-3.133 26.777c0 14.385 7.799 25.33 7.799 25.33s23.265-49.039 41.371-68.982c17.136-18.874 38.617-34.182 57.171-47.404 14.282-10.178 26.83-19.12 34.324-27.501C268.62 84.069 243.311 0 243.311 0s46.53 41.02 59.52 93.998c4.952 20.194 1.766 43.171-1.082 63.718-4.624 33.356-8.361 60.309 25.044 58.56 53.982-2.827 7.073-86.053 7.073-86.053s122.452 64.36 113.304 176.922c-9.149 112.562-133.846 138.152-133.846 138.152s32.607-26.772 38.934-49.903Z" fill="#fff"/></svg>

<svg width="512" height="512" viewBox="0 0 512 512" fill="none" xmlns="http://www.w3.org/2000/svg">
<path fill-rule="evenodd" clip-rule="evenodd" d="M352.258 395.394C358.584 372.263 346.305 324.71 346.305 324.71C346.305 324.71 337.399 363.449 323.483 377.767C311.611 389.98 297.066 398.451 276.206 400.677C293.261 392.393 304.99 375.12 304.99 355.155C304.99 327.129 281.878 304.409 253.368 304.409C224.858 304.409 201.745 327.129 201.745 355.155C201.745 362.809 203.47 370.068 206.557 376.576C188.725 362.37 185.921 339.594 185.921 339.594C185.921 339.594 166.009 422.264 220.875 461.152C275.74 500.04 383.219 466.614 383.219 466.614C383.219 466.614 229.41 574.837 115.436 457.05C17.2568 355.584 89.8111 222.003 89.8111 222.003C89.8111 222.003 86.6777 234.395 86.6777 248.78C86.6777 263.165 94.477 274.11 94.477 274.11C94.477 274.11 117.742 225.071 135.848 205.128C152.984 186.254 174.465 170.946 193.019 157.724C207.301 147.546 219.849 138.604 227.343 130.223C268.62 84.0687 243.311 0 243.311 0C243.311 0 289.841 41.02 302.831 93.9978C307.783 114.192 304.597 137.169 301.749 157.716C297.125 191.072 293.388 218.025 326.793 216.276C380.775 213.449 333.866 130.223 333.866 130.223C333.866 130.223 456.318 194.583 447.17 307.145C438.021 419.707 313.324 445.297 313.324 445.297C313.324 445.297 345.931 418.525 352.258 395.394Z" fill="white"/>
</svg>
